!!!OTL: Jacob von Artefelde
!!!ARE: Europa, Mitteleuropa, Deutschland
!!!SCT: A0364B
!!!YEM: Copyright 1995, estate of Helmut Schaffrath.
**kern
*ICvox
*Ivox
*M6/4
*k[b-]
*F:
{4g
=1
2g
4f
2g
4a
=2
2.f
2f}
{4f
=3
2b-
4b-
2cc
4a
=4
4.g
8a
4b-
2a}
{4a
=5
2cc
4cc
2b-
4a
=6
2.g
2a}
{4a
=7
4.b-
8g
4g
2g
4a
=8
4.a
8g
4f
2g}
==
!!!AGN: Romanze, Ballade, Lied, Personenlied
!! Bei der Familie Westendorp in Elberfeld gehoert und mitgetheilt
!!    durch F.W. Arnold: Volkslieder I. S. 14.
!!!ONB: ESAC (Essen Associative Code) Database: ALTDEU
!!!AMT: compound duple
!!!AIN: vox
!!!EED: Helmut Schaffrath
!!!EEV: 1.0
*-
